X:1
T:The Dying Engineer
M:6/8
L:1/4
K:C
 G/2| e e/2 e d/2| d/2 c- c G/2| A c/2 c A/2| G3/2- G G/2| c c/2 c d/2|\
 e/2 e- e c/2| d c/2 B c/2| d3/2- d G/2| e e/2 e d/2| d/2 c- c G/2|\
 A c/2 c A/2| G3/2- G G/2| c c/2 c c/2| e/2 e- e c/2| d d/2 c B/2|\
 c3/2- c||
